src/icons/Netlify.svg

<svg xmlns="http://www.w3.org/2000/svg" width="400" height="397" viewBox="0 0 400 397">
  <defs>
    <radialGradient id="a" cx="0%" cy="0%" r="100%" fx="0%" fy="0%">
      <stop stop-color="#20C6B7" offset="0%"/>
      <stop stop-color="#4D9ABF" offset="100%"/>
    </radialGradient>
  </defs>
  <path fill="url(#a)" d="M282.152734,140.402439 C284.194852,141.404121 285.896618,142.739697 287.258031,144.24222 C287.428207,144.409168 287.428207,144.409168 287.598383,144.409168 L287.76856,144.409168 L326.909168,127.881413 C327.079345,127.714466 327.249522,127.547519 327.249522,127.380572 C327.249522,127.213625 327.249522,127.046678 327.079345,126.879731 L290.491385,90.9861226 C290.321208,90.8191754 290.151032,90.8191754 290.151032,90.8191754 L289.980855,90.8191754 C289.810679,90.8191754 289.640503,90.9861226 289.640503,91.3200171 L281.642204,139.901598 C281.81238,140.068545 281.982557,140.402439 282.152734,140.402439 Z M200.978515,107.847771 C202.850458,110.685871 204.041694,114.024811 204.382047,117.363751 C204.382047,117.530698 204.552223,117.697645 204.722399,117.864592 L262.922783,142.405803 L263.092959,142.405803 C263.263135,142.405803 263.433312,142.405803 263.433312,142.238856 C265.135078,140.90328 267.177196,139.901598 269.389491,139.23381 C269.559668,139.23381 269.729845,139.066863 269.729845,138.732969 L279.259732,80.1345667 C279.259732,79.9676195 279.259732,79.800673 279.089555,79.6337258 L242.671772,43.7401177 C242.501595,43.5731707 242.501595,43.5731707 242.331419,43.5731707 C242.161243,43.5731707 241.991066,43.7401177 241.991066,43.9070647 L200.978515,107.013036 C200.808339,107.34693 200.808339,107.680825 200.978515,107.847771 Z M399.744735,198.166106 L337.289939,136.729604 C337.119762,136.562658 336.949585,136.562658 336.949585,136.562658 L336.779409,136.562658 L294.405446,154.425988 C294.235269,154.592935 294.065093,154.759882 294.065093,154.926829 C294.065093,155.093776 294.235269,155.42767 294.405446,155.42767 L398.893852,199.334735 L399.064029,199.334735 C399.234206,199.334735 399.404383,199.334735 399.404383,199.167788 L399.744735,198.833894 C400.085088,198.833894 400.085088,198.333053 399.744735,198.166106 Z M389.363965,208.182927 L289.129972,166.112279 L288.959796,166.112279 C288.789619,166.112279 288.619443,166.112279 288.449267,166.279226 C285.726441,169.95206 281.642204,172.289318 276.87726,172.957107 C276.707083,172.957107 276.366731,173.124054 276.366731,173.457948 L265.645607,238.73423 C265.645607,238.901177 265.645607,239.068125 265.815784,239.235071 C269.559668,242.073171 271.771963,246.246846 272.282493,250.921362 C272.282493,251.255257 272.45267,251.422203 272.793023,251.422203 L333.375878,263.94323 L333.546055,263.94323 C333.716231,263.94323 333.886407,263.94323 333.886407,263.776283 L389.363965,209.184609 C389.534142,209.017662 389.534142,208.850715 389.534142,208.683768 C389.534142,208.516821 389.534142,208.349874 389.363965,208.182927 Z M256.62625,152.422624 L201.829399,129.383936 L201.659222,129.383936 C201.489045,129.383936 201.318868,129.550883 201.148692,129.71783 C197.404807,135.394029 191.108275,138.732969 184.301213,138.732969 C183.280153,138.732969 182.259094,138.566022 181.067858,138.399075 L180.897682,138.399075 C180.727505,138.399075 180.557328,138.566022 180.387152,138.732969 L135.290364,208.01598 C135.120187,208.182927 135.120187,208.516821 135.290364,208.683768 C135.46054,208.850715 135.630717,208.850715 135.800894,208.850715 L135.97107,208.850715 L256.285897,157.931875 C256.456073,157.764929 256.62625,157.597982 256.62625,157.431034 L256.62625,156.763246 L256.62625,155.928512 C256.62625,154.926829 256.796427,153.925147 256.966603,153.090412 C256.966603,152.756518 256.796427,152.589571 256.62625,152.422624 Z M322.654755,273.626156 L269.389491,262.7746 L269.219315,262.7746 C269.049139,262.7746 268.878962,262.941547 268.708786,262.941547 C266.666667,265.445753 264.114019,267.449117 261.05084,268.617746 C260.880664,268.617746 260.710487,268.95164 260.710487,269.118587 L247.947246,346.915896 C247.947246,347.249789 248.117422,347.416737 248.287599,347.583684 L248.627951,347.583684 C248.798128,347.583684 248.968305,347.583684 248.968305,347.416737 L322.824931,274.794786 C322.995107,274.627839 322.995107,274.460891 322.995107,274.293944 C322.995107,273.793103 322.824931,273.626156 322.654755,273.626156 Z M248.287599,268.283852 C243.182302,266.280488 239.438418,261.772918 238.077005,256.597561 C238.077005,256.430614 237.906828,256.263667 237.566475,256.09672 L138.864071,235.896131 C138.864071,235.896131 138.864071,235.896131 138.693895,235.896131 C138.523718,235.896131 138.353542,236.063078 138.183366,236.230025 C137.672835,237.06476 137.332482,237.732548 136.821953,238.400337 C136.651776,238.567284 136.651776,238.901177 136.821953,239.068125 L226.675175,367.951219 C226.845352,368.118167 226.845352,368.118167 227.015529,368.118167 C227.185705,368.118167 227.355882,368.118167 227.355882,367.951219 L232.801531,362.608915 C232.801531,362.441968 232.971708,362.441968 232.971708,362.275021 L248.287599,268.784693 C248.627951,268.784693 248.627951,268.450799 248.287599,268.283852 Z M140.90619,224.042893 C140.90619,224.376787 141.076366,224.543734 141.41672,224.543734 L239.268241,244.577376 L239.438418,244.577376 C239.608594,244.577376 239.778771,244.410429 239.948947,244.243482 C242.841949,239.235071 247.947246,235.896131 253.733248,235.562238 C254.073602,235.562238 254.243778,235.39529 254.243778,235.061396 L264.794725,170.786796 C264.794725,170.619848 264.794725,170.285955 264.454371,170.285955 C263.773665,169.785114 263.092959,169.284272 262.242076,168.449538 C262.071899,168.28259 261.901723,168.28259 261.901723,168.28259 L261.731547,168.28259 L140.736014,219.535324 C140.395661,219.702271 140.395661,219.869218 140.395661,220.203112 C140.565837,221.538688 140.90619,222.707317 140.90619,224.042893 Z M99.89364,240.236754 C99.3831096,239.568966 98.87258,238.901177 98.3620504,238.066442 C98.1918744,237.899496 98.0216976,237.732548 97.8515208,237.732548 L97.681344,237.732548 L55.477558,255.595879 C55.3073815,255.595879 55.1372049,255.762826 55.1372049,255.929773 C55.1372049,256.09672 55.1372049,256.263667 55.3073815,256.430614 L75.898745,276.631203 C76.0689216,276.79815 76.2390981,276.79815 76.2390981,276.79815 C76.4092747,276.79815 76.5794512,276.631203 76.7496278,276.464256 L100.063816,240.570647 C100.063816,240.570647 100.063816,240.403701 99.89364,240.236754 Z M127.802595,246.747687 C127.632418,246.58074 127.462242,246.413793 127.292066,246.413793 L127.121889,246.413793 C124.058711,247.749369 120.995533,248.417157 117.762178,248.417157 C115.20953,248.417157 112.827058,248.083263 110.27441,247.248528 L110.104233,247.248528 C109.934057,247.248528 109.76388,247.415475 109.593703,247.582422 L85.0882792,285.312447 L84.9181024,285.479395 C84.7479256,285.646342 84.7479256,285.980235 84.9181024,286.147183 L197.574984,396.833053 C197.745161,397 197.915337,397 197.915337,397 C198.085514,397 198.25569,397 198.25569,396.833053 L217.996171,377.300253 C218.166347,377.133305 218.166347,376.799411 217.996171,376.632464 L127.802595,246.747687 Z M111.976175,203.174516 C112.146352,203.341463 112.316528,203.508411 112.486705,203.508411 L112.656882,203.508411 C114.358647,203.174516 116.23059,202.840623 117.932355,202.840623 C119.804297,202.840623 121.846416,203.174516 123.718358,203.675357 L123.888534,203.675357 C124.058711,203.675357 124.228887,203.508411 124.399064,203.341463 L170.006382,133.223717 C170.176558,133.05677 170.176558,132.722876 170.006382,132.555929 C166.432674,128.883095 164.390555,124.041631 164.390555,118.866274 C164.390555,117.363751 164.560732,115.861228 164.901085,114.358704 C164.901085,114.024811 164.730908,113.857864 164.560732,113.690917 C158.774729,111.186712 107.551585,89.8174936 107.551585,89.6505464 L107.381408,89.6505464 C107.211232,89.6505464 107.041055,89.6505464 107.041055,89.8174936 L63.6460328,132.555929 C63.4758563,132.722876 63.4758563,133.05677 63.6460328,133.223717 L111.976175,203.174516 Z M116.911295,80.9693021 C116.911295,80.9693021 168.644969,102.672414 170.857265,103.674096 L171.027441,103.674096 C171.197618,103.674096 171.197618,103.674096 171.367794,103.507149 C174.941502,100.66905 179.536269,98.9995795 184.131036,98.9995795 C186.343331,98.9995795 188.555626,99.3334732 190.767922,100.001261 L190.938098,100.001261 C191.108275,100.001261 191.278451,99.8343149 191.448628,99.6673677 L233.482238,35.058873 C233.652415,34.891926 233.652415,34.5580319 233.482238,34.3910849 L198.596043,0.166947014 C198.425867,0 198.425867,0 198.25569,0 C198.085514,0 197.915337,0 197.915337,0.166947014 L116.911295,79.9676195 C116.741119,80.1345667 116.741119,80.301514 116.741119,80.4684612 C116.570942,80.8023549 116.741119,80.8023549 116.911295,80.9693021 Z M96.8304616,215.361648 C97.0006384,215.361648 97.1708144,215.194701 97.3409912,215.027755 C98.3620504,213.02439 99.89364,211.187973 101.425229,209.518503 C101.595406,209.351556 101.595406,209.017662 101.425229,208.850715 C100.914699,208.182927 54.7968518,142.07191 54.7968518,141.904962 C54.6266752,141.738015 54.6266752,141.738015 54.2863221,141.571068 C54.1161455,141.571068 53.945969,141.571068 53.945969,141.738015 L0.170176558,194.493272 C0,194.660218 0,194.827166 0,194.994113 C0,195.16106 0.170176558,195.328007 0.510529675,195.328007 L96.8304616,215.361648 C96.6602848,215.361648 96.6602848,215.361648 96.8304616,215.361648 Z M92.4058712,226.880992 C92.4058712,226.547099 92.2356944,226.380152 91.8953416,226.380152 L8.33865136,209.184609 C8.33865136,209.184609 8.33865136,209.184609 8.1684748,209.184609 C7.99829824,209.184609 7.82812168,209.351556 7.65794512,209.518503 C7.48776856,209.68545 7.65794512,210.019344 7.82812168,210.186291 L45.0967879,246.914634 C45.2669645,247.081581 45.4371411,247.081581 45.4371411,247.081581 L45.6073176,247.081581 L91.8953416,227.548781 C92.2356944,227.214886 92.4058712,227.04794 92.4058712,226.880992 Z"/>
</svg>

<svg xmlns="http://www.w3.org/2000/svg" width="400" height="397" viewBox="0 0 400 397"><defs><radialGradient id="a" cx="0%" cy="0%" r="100%" fx="0%" fy="0%"><stop stop-color="#20C6B7" offset="0%"/><stop stop-color="#4D9ABF" offset="100%"/></radialGradient></defs><path fill="url(#a)" d="M282.153 140.402a16.944 16.944 0 0 1 5.105 3.84c.17.167.17.167.34.167h.17l39.141-16.528c.17-.167.34-.333.34-.5 0-.167 0-.334-.17-.501l-36.588-35.894c-.17-.167-.34-.167-.34-.167h-.17c-.17 0-.34.167-.34.501l-7.999 48.582c.17.167.34.5.51.5zm-81.174-32.554a21.438 21.438 0 0 1 3.403 9.516c0 .167.17.334.34.5l58.2 24.542h.171c.17 0 .34 0 .34-.167 1.702-1.336 3.744-2.337 5.956-3.005.17 0 .34-.167.34-.501l9.53-58.598c0-.167 0-.334-.17-.501L242.673 43.74c-.17-.167-.17-.167-.34-.167s-.34.167-.34.334l-41.013 63.106c-.17.334-.17.668 0 .835zm198.766 90.318L337.29 136.73c-.17-.167-.34-.167-.34-.167h-.17l-42.375 17.863c-.17.167-.34.334-.34.5 0 .168.17.502.34.502l104.489 43.907h.17c.17 0 .34 0 .34-.167l.34-.334c.341 0 .341-.5 0-.668zm-10.381 10.017l-100.234-42.07h-.17c-.17 0-.34 0-.51.166-2.724 3.673-6.808 6.01-11.573 6.678-.17 0-.51.167-.51.5l-10.721 65.277c0 .167 0 .334.17.501 3.744 2.838 5.956 7.012 6.466 11.686 0 .334.17.501.511.501l60.583 12.521h.17c.17 0 .34 0 .34-.167l55.478-54.591c.17-.167.17-.334.17-.501 0-.167 0-.334-.17-.501zm-132.738-55.76l-54.797-23.04h-.17c-.17 0-.34.168-.51.335-3.744 5.676-10.04 9.015-16.848 9.015-1.02 0-2.042-.167-3.233-.334h-.17c-.17 0-.34.167-.51.334l-45.098 69.283a.5.5 0 0 0 0 .668c.17.167.34.167.51.167h.171l120.315-50.92c.17-.166.34-.333.34-.5v-1.502c0-1.002.17-2.004.34-2.839 0-.333-.17-.5-.34-.667zm66.029 121.203l-53.266-10.851h-.17c-.17 0-.34.167-.51.167-2.042 2.504-4.595 4.507-7.658 5.676-.17 0-.34.334-.34.5l-12.764 77.798c0 .334.17.5.34.668h.341c.17 0 .34 0 .34-.167l73.857-72.622c.17-.167.17-.334.17-.501 0-.5-.17-.668-.34-.668zm-74.367-5.342c-5.106-2.004-8.85-6.511-10.211-11.686 0-.167-.17-.334-.51-.501l-98.703-20.2h-.17c-.17 0-.34.166-.51.333-.511.835-.852 1.503-1.362 2.17a.5.5 0 0 0 0 .668l89.853 128.883c.17.167.17.167.34.167s.34 0 .34-.167l5.447-5.342c0-.167.17-.167.17-.334l15.316-93.49c.34 0 .34-.334 0-.501zm-107.382-44.241c0 .334.17.5.51.5l97.852 20.034h.17c.17 0 .34-.167.51-.334 2.894-5.008 8-8.347 13.785-8.68.34 0 .51-.168.51-.502l10.552-64.274c0-.167 0-.501-.34-.501-.681-.5-1.362-1.002-2.213-1.836-.17-.167-.34-.167-.34-.167h-.17l-120.996 51.252c-.34.167-.34.334-.34.668.17 1.336.51 2.504.51 3.84zm-41.012 16.194c-.51-.668-1.021-1.336-1.532-2.17-.17-.168-.34-.334-.51-.334h-.17l-42.204 17.863c-.17 0-.34.167-.34.334s0 .334.17.5l20.59 20.201c.17.167.341.167.341.167.17 0 .34-.167.51-.334l23.315-35.893s0-.167-.17-.334zm27.909 6.51c-.17-.166-.34-.333-.51-.333h-.171c-3.063 1.335-6.126 2.003-9.36 2.003-2.552 0-4.935-.334-7.488-1.168h-.17c-.17 0-.34.166-.51.333l-24.506 37.73-.17.167a.5.5 0 0 0 0 .668l112.657 110.686c.17.167.34.167.34.167.17 0 .34 0 .34-.167l19.741-19.533a.5.5 0 0 0 0-.668l-90.193-129.884zm-15.827-43.572c.17.166.34.333.51.333h.17c1.703-.333 3.575-.667 5.276-.667 1.872 0 3.914.334 5.786.834h.17c.17 0 .34-.167.511-.334l45.607-70.117a.5.5 0 0 0 0-.668c-3.573-3.673-5.615-8.514-5.615-13.69 0-1.502.17-3.005.51-4.507 0-.334-.17-.501-.34-.668-5.786-2.504-57.01-23.874-57.01-24.04h-.17c-.17 0-.34 0-.34.166l-43.395 42.739a.5.5 0 0 0 0 .668l48.33 69.95zm4.935-122.206s51.734 21.703 53.946 22.705h.17c.17 0 .17 0 .34-.167 3.575-2.838 8.17-4.507 12.764-4.507 2.212 0 4.425.333 6.637 1.001h.17c.17 0 .34-.167.51-.334l42.034-64.608a.5.5 0 0 0 0-.668L198.596.167c-.17-.167-.17-.167-.34-.167s-.34 0-.34.167l-81.005 79.8c-.17.168-.17.335-.17.501-.17.334 0 .334.17.501zm-20.08 134.393c.17 0 .34-.167.51-.334 1.021-2.004 2.553-3.84 4.084-5.51a.5.5 0 0 0 0-.667c-.51-.668-46.628-66.78-46.628-66.946-.17-.167-.17-.167-.51-.334-.17 0-.341 0-.341.167L.17 194.493c-.17.167-.17.334-.17.501 0 .167.17.334.51.334l96.32 20.034c-.17 0-.17 0 0 0zm-4.425 11.519c0-.334-.17-.5-.51-.5L8.338 209.184h-.17c-.17 0-.34.167-.511.334-.17.166 0 .5.17.667l37.269 36.729c.17.167.34.167.34.167h.17l46.288-19.533c.34-.334.51-.501.51-.668z"/></svg>
